X: 1465
T: Nevâ Sazsemâîsi
C: Kantemiroğlu
O: Turkey
F: http://compmusic.upf.edu/node/140
N: neva--sazsemaisi--aksaksemai----kantemiroglu
N: makam= neva
N: form= sazsemaisi
N: usul= aksaksemai = 10/8
M: 10/8
L: 1/16
K: C _2/4B ^3/4f  
Q: 1/4=126
%%MIDI tuningsystem comma53
e2d2 c2B2 A2G2 e2d4z2  | d4 g2^f3ea2 gffe d2d2  | \
w:  1. HANE  |   | 
d4 g2^fg fgab agf4g2  | 
w:   | 
^f2e2 d2^cd cde2 f2d4z2  | d4 aaa3^fga gfc'3/2b/ a2a2  | 
w:   |  TESLİM   | 
c'4 b2a2 g^fef efg4a2  | ^fgfg agf3ede def4g2  | 
w:   |   | 
^f2e2 d2^cd cde2 f2d4z2  | d4 e2d4^c4d4z2  | \
w:   |  2. HANE  | 
A3A A2^c2 _7/8BAG3Gd4z2  | 
w:   | 
d4 g2^fg fgab agf4g2  | ^f2e2 d2^cd cde2 f2d4z2  | 
w:   |   | 
z24  | ^f3ef2g2f4e4d4a4  | g2a2g2^f2fefgf2e2d6z2  | 
w:  |  3. HANE  |   | 
a3ba3g^f4e4f4g4  | g3^fe2d2f3ed2^c2d4f4  | \
w:   |   | 
^f3ef2g2f4e4d4a4  | 
w:  3. HANE  | 
g2a2g2^f2fefgf2e2d6z2  | a3ba3g^f4e4f4g4  | \
w:   |   | 
g3^fe2d2f3ed2^c2d4a4  | 
w:   | 
{z}^f4g4a4b4c'4d'4  | c'4b4a4g4g3^fe4  | z20  | \
w:   |   |  | 
^fgfg aba2 gff3/2e/ def4g2  | 
w:   | 
z0 ^f2e2 d2^cd cde2 f2d4a2  | z0 {z}^f2e2 d2^cd cde2 f2d4z2  | 
w:   |   | 
d4 ddd4a3/2g/ abg4^f2  | g^fga f4 e2fe fge4f2  | 
w:  4. HANE  |   | 
d4 ddd4g^f gaf4g2  | ^f2e2 d2^cd cde2 f2d4z2  | 
w:   |   | 
d4 ddd4a3/2g/ abg4^f2  | g^fga f4 e2fe fge4f2  | 
w:  4. HANE  |   | 
d4 ddd4g^f gaf4g2  | ^f2e2 d2^cd cde2 f2d4z2  | 
w:   |   | 
{z}d4 ddd4g4^f4g2  | e4 ^f2e4e2 f2e4f2  | \
w:   |   | 
d4 ddd4e=f edd4B2  | 
w:   | 
c4 B2^f2 g2g2 fed4z2  | d4 ddd4a3/2g/ abg4^f2  | \
w:   |  4. HANE  | 
g^fga f4 e2fe fge4f2  | 
w:   | 
d4 ddd4g^f gaf4g2  | ^f2e2 d2^cd cde2 f2d4z2  | 
w:   |   | 
d4 ddd4a3/2g/ abg4^f2  | g^fga f4 e2fe fge4f2  | 
w:  4. HANE  |   | 
d4 ddd4g^f gaf4g2  | ^f2e2 d2^cd cde2 f2d4z2  | 
w:   |   | 
{z}d4 ddd4g4^f4g2  | e4 ^f2e4e2 f2e4f2  | \
w:   |   | 
d4 ddd4e=f edd4B2  | 
w:   | 
c4 B2^f2 g2g2 fed4z2  | |


